X: 1
T: Bee Minority, The
M: 4/4
L: 1/8
R: reel
K: Bmin
FB~B2 f2ed|cAeA fAe2|FBBc~d2cd|ec~c2 ABcA|
FB~B2 fedf|efec ABcA|dcBd cBAB|FBBA B4:|
bf~f2 fece|~a2ea faea|bf~f2 fecA|BdcA~B4|
bf~f2 fece|~a2ea faec|dcBd cBAB|FBBA B4:|
